X: 7
T:Jouyssance vous donneray
T:I will give you joy
M:6/4
L:1/4
R:Basse Dance
P:AABBAA then retour BBAA
B:Thoinot Arbeau : Orchesography 1589
N:alternate first bar DC DE DE
Z:Steve Mansfield February 2001
K:DDor
P:A
D2 D2 D2 | F2 ED C2 | F2 GE FG | A4 A2 |
AG FG AB | c2 cB A2 | BA GF GE | F4 F2 |
A2 G2 A2 | D4 D2 | EF GF ED | C4 C2 |
cB AG FE | F2 BA GF | EDC DDC | D4 D2 ::
P:B
d2 d2 d2 | cB cd e2 | dc BA BG | A4 A2 |
AG AB cd | e2 dc BA | BA GA BG | A4 A2 :||
<end>
<start>
